X:16
T:Roxanna Waltz in C
C:Bill Monroe
S:The Fiddlers Fakebook
M:3/4
L:1/8
K:C
zD EG |: "C"c4 (3d^c=c | "E"B4 (3BcB | "F"A3G EC | "C"G,4 A,C |
"F"F3A, _B,=B, | "G"E4 ED |[1 "C"CE3 AE | "G"G6 :|[2 "C"C4- (3C^CD |
_B,4- (3B,=B,D |] "F"F3C FA | "Adim"d3c (3AcA | "C"G3A "G"GFE | "C"G4 (3EGE |
"D"D4 (3D^FA | dc3 dc | "G"B3G Bc | "G7"d4-dG, | "C"c4-cd/c/ |
"E"B4-Bc/B/ |"F"A3G EC |"C"G,4 (3A,B,C |"F"F3A, _B,=B, |"G"E4 _E=E |"C"C6 |]
